X: 1
T: The Pipe On The Hob
R: jig
M: 6/8
L: 1/8
K: Dmix
ded A2G|EFD DEF|EDE cBc|E2D DFA|
dcB cBA|BAG A2G|EDE cBc|1E2D Dfe:|2E2D D2e||
|:f2d d^cd|f2d d^cd|edB c2d|ede age|
[1 f2d d^cd|f2d d^cd|ede age|ed^c dge:|
[2 ~f3 ~g3|afa gfe|fed eag|ed^c d2A||


Tune 1049	Setting 22722

